src/images/global/icons/nav/arrow-right.svg

<?xml version="1.0" encoding="UTF-8"?>
<svg width="48px" height="48px" viewBox="0 0 48 48" version="1.1" xmlns="http://www.w3.org/2000/svg" xmlns:xlink="http://www.w3.org/1999/xlink">
    <!-- Generator: Sketch 46.2 (44496) - http://www.bohemiancoding.com/sketch -->
    <title>icon/Nav/arrow-right</title>
    <desc>Created with Sketch.</desc>
    <defs>
        <path d="M26.5857864,12.9230769 L16.2928932,22.4242091 C15.9023689,22.7846931 15.9023689,23.3691531 16.2928932,23.729637 C16.6834175,24.090121 17.3165825,24.090121 17.7071068,23.729637 L29.7071068,12.652714 C30.0976311,12.29223 30.0976311,11.70777 29.7071068,11.347286 L17.7071068,0.270362971 C17.3165825,-0.0901209904 16.6834175,-0.0901209904 16.2928932,0.270362971 C15.9023689,0.630846933 15.9023689,1.21530691 16.2928932,1.57579087 L26.5857864,11.0769231 L1,11.0769231 C0.44771525,11.0769231 0,11.4901987 0,12 C0,12.5098013 0.44771525,12.9230769 1,12.9230769 L26.5857864,12.9230769 Z" id="path-1"></path>
    </defs>
    <g id="Symbols" stroke="none" stroke-width="1" fill="none" fill-rule="evenodd">
        <g id="icon/Nav/arrow-right">
            <g id="Icon" transform="translate(9.000000, 12.000000)">
                <mask id="mask-2" fill="white">
                    <use xlink:href="#path-1"></use>
                </mask>
                <use id="Path" fill="#384048" fill-rule="nonzero" xlink:href="#path-1"></use>
                <g id="Color/Grayscale/Night-Sky" mask="url(#mask-2)" fill="#111111">
                    <g transform="translate(-9.000000, -12.000000)" id="Swatch">
                        <rect x="0" y="0" width="48" height="48"></rect>
                    </g>
                </g>
            </g>
        </g>
    </g>
</svg>

<?xml version="1.0" encoding="utf-8"?>
<!-- Generator: Adobe Illustrator 21.0.2, SVG Export Plug-In . SVG Version: 6.00 Build 0)  -->
<svg version="1.1" id="icon_x2F_Nav_x2F_arrow-right-Layer_1" xmlns="http://www.w3.org/2000/svg" xmlns:xlink="http://www.w3.org/1999/xlink" x="0px" y="0px"
	 viewBox="0 0 48 48" style="enable-background:new 0 0 48 48;" xml:space="preserve">
<title>icon/Nav/arrow-right</title>
<desc>Created with Sketch.</desc>
<g id="icon_x2F_Nav_x2F_arrow-right-Symbols">
	<g id="icon_x2F_Nav_x2F_arrow-right">
		<g id="icon_x2F_Nav_x2F_arrow-right-Icon" transform="translate(9.000000, 12.000000)">
			<g id="icon_x2F_Nav_x2F_arrow-right-Path">
				<path id="icon_x2F_Nav_x2F_arrow-right-path-1_1_" style="fill:#384048;" d="M26.6,12.9l-10.3,9.5c-0.4,0.4-0.4,0.9,0,1.3c0.4,0.4,1,0.4,1.4,0l12-11.1
					c0.4-0.4,0.4-0.9,0-1.3l-12-11.1c-0.4-0.4-1-0.4-1.4,0c-0.4,0.4-0.4,0.9,0,1.3l10.3,9.5H1c-0.6,0-1,0.4-1,0.9s0.4,0.9,1,0.9
					H26.6z"/>
			</g>
			<defs>
				<filter id="icon_x2F_Nav_x2F_arrow-right-Adobe_OpacityMaskFilter" filterUnits="userSpaceOnUse" x="-9" y="-12" width="48" height="48">
					<feColorMatrix  type="matrix" values="1 0 0 0 0  0 1 0 0 0  0 0 1 0 0  0 0 0 1 0"/>
				</filter>
			</defs>
			<mask maskUnits="userSpaceOnUse" x="-9" y="-12" width="48" height="48" id="icon_x2F_Nav_x2F_arrow-right-mask-2">
				<g style="filter:url(#icon_x2F_Nav_x2F_arrow-right-Adobe_OpacityMaskFilter);">
					<path id="icon_x2F_Nav_x2F_arrow-right-path-1" style="fill:#FFFFFF;" d="M26.6,12.9l-10.3,9.5c-0.4,0.4-0.4,0.9,0,1.3c0.4,0.4,1,0.4,1.4,0l12-11.1
						c0.4-0.4,0.4-0.9,0-1.3l-12-11.1c-0.4-0.4-1-0.4-1.4,0c-0.4,0.4-0.4,0.9,0,1.3l10.3,9.5H1c-0.6,0-1,0.4-1,0.9s0.4,0.9,1,0.9
						H26.6z"/>
				</g>
			</mask>
			<g id="icon_x2F_Nav_x2F_arrow-right-Color_x2F_Grayscale_x2F_Night-Sky" style="mask:url(#icon_x2F_Nav_x2F_arrow-right-mask-2);">
				<g id="icon_x2F_Nav_x2F_arrow-right-Swatch" transform="translate(-9.000000, -12.000000)">
					<rect style="fill:#111111;" width="48" height="48"/>
				</g>
			</g>
		</g>
	</g>
</g>
</svg>
